X:1
T:MA SISE LO
T:MA SISE LO
T:CCC HYMN 429
T:CELESTIAL CHURCH OF CHRIST
T:Copyright © CCC Central Choir
C:CELESTIAL CHURCH OF CHRIST
Z:Copyright © CCC Central Choir
%%score [ ( 1 2 ) ( 3 4 ) ]
L:1/8
Q:1/4=130
M:2/2
K:G
V:1 treble nm="Soprano/Alto"
V:2 treble 
V:3 bass nm="Tenor/Bass"
V:4 bass 
V:1
 G4 G3 G | G6 A2 | B2 G2 A2 F2 | G8 | B4 B3 B | B6 c2 | d2 B2 c2 A2 | B8 | e4 d3 e | d6 c2 | %10
w: 1.~~~Ma si- se|lo, ma|se wa i- si-|mi;|Ma fu- ru-|gbin, O-|lu- ko- re m-|bo,|O- ju͜O- lu-|wa n-|
w: 2.~~~I- wo du-|ro la-|san lai si- se|kan;|Ni- gba- t'a-|won e-|lo- mi- ran nsi-|se,|O- ju͜O- lu-|wa n-|
w: 3.~~~Lo- gan o|ti gbo-|hun fe- re wi-|pe;|Te 'do- je|bo, wa-|ka- ti na ti-|de,|O- ju 'sa-|ju, a-|
 B2 d2 (d2 c2) | B8 | G4 G3 G | G6 A2 | B2 G2 A2 F2 | G8 | B4 B3 B | B6 G2 | A4 A2 B2 | A8 | %20
w: wo i- se _|re;|A- won An-|ge- li|mi- mo n- ko|won.|I- ba se|re- re|ta- bi i-|bi,|
w: wo i- se *|re;|||||||||
w: ~nu͜~a- ti 'jo d'o-|pin;|||||||||
 e4 d2 e2 | d6 c2 | B6 A2 | B4 A4 | G8!D.C.! | G8 | G8 |] %27
w: E- re i-|se re|ni i-|wo yio|gba.|A-|min.|
w: |||||||
w: |||||||
V:2
 D4 D3 D | D6 D2 | D2 D2 D2 D2 | D8 | G4 G3 G | G6 G2 | F2 F2 F2 F2 | G8 | G4 G3 G | G6 G2 | %10
 F2 F2 A2- A2 | G8 | G4 G3 G | G6 G2 | G2 G2 D2 D2 | D8 | G4 G3 G | G6 G2 | E4 G4 | (G4 F4) | %20
 G4 G2 G2 | G6 G2 | G6 G2 | G4 F4 | G8 | E8 | D8 |] %27
V:3
 B,4 B,3 B, | B,6 C2 | C2 C2 C2 C2 | B,8 | D4 D3 D | D6 D2 | D2 D2 D2 D2 | D8 | C4 C3 C | B,6 D2 | %10
 D2 D2 D2- D2 | D8 | B,4 B,3 B, | C6 C2 | D2 B,2 C2 C2 | B,8 | D4 D3 D | D6 B,2 | ^C4 C4 | D8 | %20
 C4 B,2 C2 | B,6 D2 | D6 D2 | D4 (D2 C2) | B,8 | C8 | B,8 |] %27
V:4
 G,4 G,3 G, | G,6 G,2 | D,2 D,2 D,2 D,2 | G,8 | G,4 G,3 G, | G,6 G,2 | D,2 D,2 D,2 D,2 | G,8 | %8
w: ||||||||
w: ||||||||
 (C,2 D,2) (E,2 F,2) | (G,2 A,2) B,2 G,2 | D,2- D,2 (E,2 F,2) | (G,6 F,2) | E,4 E,3 E, | _E,6 E,2 | %14
w: O- * ju O-|lu- * wa n-|wo i- se _|re; *|||
w: O- * ju _|'sa- * ju a-|nua- ti 'jo- d'o-|pin; *|||
 D,2 D,2 D,2 D,2 | G,8 | G,4 G,3 G, | G,6 G,2 | A,,4 A,,4 | D,8 | G,4 G,2 G,2 | %21
w: |||||||
w: |||||||
 (G,2 A,,2 B,,2) C,2 | D,6 D,2 | D,4 D,4 | G,,8 | C,8 | G,,8 |] %27
w: ||||||
w: ||||||

